_includes/icons/color-santas-hat.svg

<svg fill="#666" height="50" viewBox="0 0 48 48" width="50" xmlns="http://www.w3.org/2000/svg"><path d="m31 17c.480469-.480469 2.109375-.035156 3.675781.550781 2.898438 1.671875 5.324219 3.449219 5.324219 3.449219s-5-14-15-14c-19 0-19 30-19 30l.316406-.335937c-.207031.839843-.316406 1.335937-.316406 1.335937l29-2c0-9-7.160156-15.839844-4-19z" fill="#ff3d00"/><path d="m31 17c.480469-.480469 2.113281-.035156 3.683594.554688-4.210938-2.425782-9.410156-4.617188-9.664063-.835938.210938 8.378906 3.980469 10.535156 3.980469 19.28125.261719 1.832031 1.214844 3.046875 2.46875 3.839844 2.152344-.679688 3.53125-1.878906 3.53125-3.839844 0-9-7.160156-15.839844-4-19z" fill="#dd2c00"/><g fill="#cfd8dc"><path d="m5 33h31v7h-31z"/><path d="m10 33.5c0 .828125-.671875 1.5-1.5 1.5s-1.5-.671875-1.5-1.5.671875-1.5 1.5-1.5 1.5.671875 1.5 1.5z"/><path d="m7 33.5c0 .828125-.671875 1.5-1.5 1.5s-1.5-.671875-1.5-1.5.671875-1.5 1.5-1.5 1.5.671875 1.5 1.5z"/><path d="m13 33.5c0 .828125-.671875 1.5-1.5 1.5s-1.5-.671875-1.5-1.5.671875-1.5 1.5-1.5 1.5.671875 1.5 1.5z"/><path d="m16 33.5c0 .828125-.671875 1.5-1.5 1.5s-1.5-.671875-1.5-1.5.671875-1.5 1.5-1.5 1.5.671875 1.5 1.5z"/><path d="m19 33.5c0 .828125-.671875 1.5-1.5 1.5s-1.5-.671875-1.5-1.5.671875-1.5 1.5-1.5 1.5.671875 1.5 1.5z"/><path d="m10 39.5c0 .828125-.671875 1.5-1.5 1.5s-1.5-.671875-1.5-1.5.671875-1.5 1.5-1.5 1.5.671875 1.5 1.5z"/><path d="m13 39.5c0 .828125-.671875 1.5-1.5 1.5s-1.5-.671875-1.5-1.5.671875-1.5 1.5-1.5 1.5.671875 1.5 1.5z"/><path d="m16 39.5c0 .828125-.671875 1.5-1.5 1.5s-1.5-.671875-1.5-1.5.671875-1.5 1.5-1.5 1.5.671875 1.5 1.5z"/><path d="m19 39.5c0 .828125-.671875 1.5-1.5 1.5s-1.5-.671875-1.5-1.5.671875-1.5 1.5-1.5 1.5.671875 1.5 1.5z"/><path d="m22 33.5c0 .828125-.671875 1.5-1.5 1.5s-1.5-.671875-1.5-1.5.671875-1.5 1.5-1.5 1.5.671875 1.5 1.5z"/><path d="m22 39.5c0 .828125-.671875 1.5-1.5 1.5s-1.5-.671875-1.5-1.5.671875-1.5 1.5-1.5 1.5.671875 1.5 1.5z"/><path d="m25 39.5c0 .828125-.671875 1.5-1.5 1.5s-1.5-.671875-1.5-1.5.671875-1.5 1.5-1.5 1.5.671875 1.5 1.5z"/><path d="m37 36.5c0 .828125-.671875 1.5-1.5 1.5s-1.5-.671875-1.5-1.5.671875-1.5 1.5-1.5 1.5.671875 1.5 1.5z"/><path d="m25 33.5c0 .828125-.671875 1.5-1.5 1.5s-1.5-.671875-1.5-1.5.671875-1.5 1.5-1.5 1.5.671875 1.5 1.5z"/><path d="m28 39.5c0 .828125-.671875 1.5-1.5 1.5s-1.5-.671875-1.5-1.5.671875-1.5 1.5-1.5 1.5.671875 1.5 1.5z"/><path d="m28 33.5c0 .828125-.671875 1.5-1.5 1.5s-1.5-.671875-1.5-1.5.671875-1.5 1.5-1.5 1.5.671875 1.5 1.5z"/><path d="m31 39.5c0 .828125-.671875 1.5-1.5 1.5s-1.5-.671875-1.5-1.5.671875-1.5 1.5-1.5 1.5.671875 1.5 1.5z"/><path d="m31 33.5c0 .828125-.671875 1.5-1.5 1.5s-1.5-.671875-1.5-1.5.671875-1.5 1.5-1.5 1.5.671875 1.5 1.5z"/><path d="m34 39.5c0 .828125-.671875 1.5-1.5 1.5s-1.5-.671875-1.5-1.5.671875-1.5 1.5-1.5 1.5.671875 1.5 1.5z"/><path d="m34 33.5c0 .828125-.671875 1.5-1.5 1.5s-1.5-.671875-1.5-1.5.671875-1.5 1.5-1.5 1.5.671875 1.5 1.5z"/><path d="m37 39.5c0 .828125-.671875 1.5-1.5 1.5s-1.5-.671875-1.5-1.5.671875-1.5 1.5-1.5 1.5.671875 1.5 1.5z"/><path d="m37 33.5c0 .828125-.671875 1.5-1.5 1.5s-1.5-.671875-1.5-1.5.671875-1.5 1.5-1.5 1.5.671875 1.5 1.5z"/><path d="m7 36.5c0 .828125-.671875 1.5-1.5 1.5s-1.5-.671875-1.5-1.5.671875-1.5 1.5-1.5 1.5.671875 1.5 1.5z"/><path d="m7 39.5c0 .828125-.671875 1.5-1.5 1.5s-1.5-.671875-1.5-1.5.671875-1.5 1.5-1.5 1.5.671875 1.5 1.5z"/><path d="m41.6875 20.015625c0-1.96875-1.605469-3.5625-3.585937-3.5625-1.984375 0-3.589844 1.59375-3.589844 3.5625 0 1.964844 1.605469 3.5625 3.589844 3.5625 1.980468 0 3.585937-1.597656 3.585937-3.5625z"/><path d="m37.101563 24.980469c-.695313-.140625-1.179688-.710938-1.21875-1.371094-.605469.261719-1.34375.089844-1.773438-.449219-.414062-.511718-.433594-1.210937-.101562-1.730468-.585938-.207032-1.007813-.757813-1.007813-1.417969 0-.6875.472656-1.269531 1.117188-1.4375-.382813-.550781-.363282-1.300781.09375-1.832031.441406-.519532 1.1875-.667969 1.78125-.386719.070312-.660156.574218-1.222656 1.257812-1.332031.6875-.121094 1.34375.25 1.625.851562.472656-.460937 1.21875-.570312 1.820313-.210937.59375.351562.867187 1.050781.6875 1.679687.664062-.039062 1.308593.351563 1.53125 1.007813 0 0 0 0 0-.007813.230468.660156-.019532 1.359375-.574219 1.738281.542969.390625.773437 1.101563.523437 1.738282-.253906.652343-.894531 1.03125-1.5625.960937.152344.640625-.132812 1.332031-.746093 1.671875-.605469.328125-1.351563.195313-1.8125-.273437-.25.5-.773438.820312-1.351563.820312-.097656 0-.191406 0-.289062-.019531zm.582031-2.949219v.007813c.324219.0625.585937.210937.796875.421875.132812-.261719.34375-.488282.625-.640625.273437-.148438.585937-.210938.875-.179688-.070313-.277344-.058594-.589844.0625-.890625.109375-.300781.3125-.527344.554687-.699219-.242187-.167968-.433593-.417968-.535156-.71875-.097656-.300781-.109375-.609375-.027344-.890625-.292968.019532-.605468-.039062-.878906-.199218-.269531-.171875-.472656-.398438-.601562-.671875-.210938.210937-.484375.359375-.796875.410156-.324219.050781-.625 0-.898438-.121094-.027344.292969-.140625.582031-.339844.820313-.210937.242187-.476562.398437-.765625.480468.167969.238282.269532.539063.269532.851563 0 .296875-.082032.566406-.230469.796875.261719.089844.492187.25.683594.480469.191406.25.304687.539062.324218.839843.179688-.078125.382813-.128906.59375-.128906.097657.003906.199219.011719.289063.03125z"/></g></svg>

<svg xmlns="http://www.w3.org/2000/svg" viewBox="0 0 48 48" width="50" height="50" fill="#666"><path d="M 31 17 C 31.480469 16.519531 33.109375 16.964844 34.675781 17.550781 C 37.574219 19.222656 40 21 40 21 C 40 21 35 7 25 7 C 6 7 6 37 6 37 L 6.316406 36.664063 C 6.109375 37.503906 6 38 6 38 L 35 36 C 35 27 27.839844 20.160156 31 17 Z" fill="#ff3d00"/><path d="M 31 17 C 31.480469 16.519531 33.113281 16.964844 34.683594 17.554688 C 30.472656 15.128906 25.273438 12.9375 25.019531 16.71875 C 25.230469 25.097656 29 27.253906 29 36 C 29.261719 37.832031 30.214844 39.046875 31.46875 39.839844 C 33.621094 39.160156 35 37.960938 35 36 C 35 27 27.839844 20.160156 31 17 Z" fill="#dd2c00"/><path d="M 5 33 L 36 33 L 36 40 L 5 40 Z" fill="#cfd8dc"/><path d="M 10 33.5 C 10 34.328125 9.328125 35 8.5 35 C 7.671875 35 7 34.328125 7 33.5 C 7 32.671875 7.671875 32 8.5 32 C 9.328125 32 10 32.671875 10 33.5 Z" fill="#cfd8dc"/><path d="M 7 33.5 C 7 34.328125 6.328125 35 5.5 35 C 4.671875 35 4 34.328125 4 33.5 C 4 32.671875 4.671875 32 5.5 32 C 6.328125 32 7 32.671875 7 33.5 Z" fill="#cfd8dc"/><path d="M 13 33.5 C 13 34.328125 12.328125 35 11.5 35 C 10.671875 35 10 34.328125 10 33.5 C 10 32.671875 10.671875 32 11.5 32 C 12.328125 32 13 32.671875 13 33.5 Z" fill="#cfd8dc"/><path d="M 16 33.5 C 16 34.328125 15.328125 35 14.5 35 C 13.671875 35 13 34.328125 13 33.5 C 13 32.671875 13.671875 32 14.5 32 C 15.328125 32 16 32.671875 16 33.5 Z" fill="#cfd8dc"/><path d="M 19 33.5 C 19 34.328125 18.328125 35 17.5 35 C 16.671875 35 16 34.328125 16 33.5 C 16 32.671875 16.671875 32 17.5 32 C 18.328125 32 19 32.671875 19 33.5 Z" fill="#cfd8dc"/><path d="M 10 39.5 C 10 40.328125 9.328125 41 8.5 41 C 7.671875 41 7 40.328125 7 39.5 C 7 38.671875 7.671875 38 8.5 38 C 9.328125 38 10 38.671875 10 39.5 Z" fill="#cfd8dc"/><path d="M 13 39.5 C 13 40.328125 12.328125 41 11.5 41 C 10.671875 41 10 40.328125 10 39.5 C 10 38.671875 10.671875 38 11.5 38 C 12.328125 38 13 38.671875 13 39.5 Z" fill="#cfd8dc"/><path d="M 16 39.5 C 16 40.328125 15.328125 41 14.5 41 C 13.671875 41 13 40.328125 13 39.5 C 13 38.671875 13.671875 38 14.5 38 C 15.328125 38 16 38.671875 16 39.5 Z" fill="#cfd8dc"/><path d="M 19 39.5 C 19 40.328125 18.328125 41 17.5 41 C 16.671875 41 16 40.328125 16 39.5 C 16 38.671875 16.671875 38 17.5 38 C 18.328125 38 19 38.671875 19 39.5 Z" fill="#cfd8dc"/><path d="M 22 33.5 C 22 34.328125 21.328125 35 20.5 35 C 19.671875 35 19 34.328125 19 33.5 C 19 32.671875 19.671875 32 20.5 32 C 21.328125 32 22 32.671875 22 33.5 Z" fill="#cfd8dc"/><path d="M 22 39.5 C 22 40.328125 21.328125 41 20.5 41 C 19.671875 41 19 40.328125 19 39.5 C 19 38.671875 19.671875 38 20.5 38 C 21.328125 38 22 38.671875 22 39.5 Z" fill="#cfd8dc"/><path d="M 25 39.5 C 25 40.328125 24.328125 41 23.5 41 C 22.671875 41 22 40.328125 22 39.5 C 22 38.671875 22.671875 38 23.5 38 C 24.328125 38 25 38.671875 25 39.5 Z" fill="#cfd8dc"/><path d="M 37 36.5 C 37 37.328125 36.328125 38 35.5 38 C 34.671875 38 34 37.328125 34 36.5 C 34 35.671875 34.671875 35 35.5 35 C 36.328125 35 37 35.671875 37 36.5 Z" fill="#cfd8dc"/><path d="M 25 33.5 C 25 34.328125 24.328125 35 23.5 35 C 22.671875 35 22 34.328125 22 33.5 C 22 32.671875 22.671875 32 23.5 32 C 24.328125 32 25 32.671875 25 33.5 Z" fill="#cfd8dc"/><path d="M 28 39.5 C 28 40.328125 27.328125 41 26.5 41 C 25.671875 41 25 40.328125 25 39.5 C 25 38.671875 25.671875 38 26.5 38 C 27.328125 38 28 38.671875 28 39.5 Z" fill="#cfd8dc"/><path d="M 28 33.5 C 28 34.328125 27.328125 35 26.5 35 C 25.671875 35 25 34.328125 25 33.5 C 25 32.671875 25.671875 32 26.5 32 C 27.328125 32 28 32.671875 28 33.5 Z" fill="#cfd8dc"/><path d="M 31 39.5 C 31 40.328125 30.328125 41 29.5 41 C 28.671875 41 28 40.328125 28 39.5 C 28 38.671875 28.671875 38 29.5 38 C 30.328125 38 31 38.671875 31 39.5 Z" fill="#cfd8dc"/><path d="M 31 33.5 C 31 34.328125 30.328125 35 29.5 35 C 28.671875 35 28 34.328125 28 33.5 C 28 32.671875 28.671875 32 29.5 32 C 30.328125 32 31 32.671875 31 33.5 Z" fill="#cfd8dc"/><path d="M 34 39.5 C 34 40.328125 33.328125 41 32.5 41 C 31.671875 41 31 40.328125 31 39.5 C 31 38.671875 31.671875 38 32.5 38 C 33.328125 38 34 38.671875 34 39.5 Z" fill="#cfd8dc"/><path d="M 34 33.5 C 34 34.328125 33.328125 35 32.5 35 C 31.671875 35 31 34.328125 31 33.5 C 31 32.671875 31.671875 32 32.5 32 C 33.328125 32 34 32.671875 34 33.5 Z" fill="#cfd8dc"/><path d="M 37 39.5 C 37 40.328125 36.328125 41 35.5 41 C 34.671875 41 34 40.328125 34 39.5 C 34 38.671875 34.671875 38 35.5 38 C 36.328125 38 37 38.671875 37 39.5 Z" fill="#cfd8dc"/><path d="M 37 33.5 C 37 34.328125 36.328125 35 35.5 35 C 34.671875 35 34 34.328125 34 33.5 C 34 32.671875 34.671875 32 35.5 32 C 36.328125 32 37 32.671875 37 33.5 Z" fill="#cfd8dc"/><path d="M 7 36.5 C 7 37.328125 6.328125 38 5.5 38 C 4.671875 38 4 37.328125 4 36.5 C 4 35.671875 4.671875 35 5.5 35 C 6.328125 35 7 35.671875 7 36.5 Z" fill="#cfd8dc"/><path d="M 7 39.5 C 7 40.328125 6.328125 41 5.5 41 C 4.671875 41 4 40.328125 4 39.5 C 4 38.671875 4.671875 38 5.5 38 C 6.328125 38 7 38.671875 7 39.5 Z" fill="#cfd8dc"/><path d="M 41.6875 20.015625 C 41.6875 18.046875 40.082031 16.453125 38.101563 16.453125 C 36.117188 16.453125 34.511719 18.046875 34.511719 20.015625 C 34.511719 21.980469 36.117188 23.578125 38.101563 23.578125 C 40.082031 23.578125 41.6875 21.980469 41.6875 20.015625 Z" fill="#cfd8dc"/><path d="M 37.101563 24.980469 C 36.40625 24.839844 35.921875 24.269531 35.882813 23.609375 C 35.277344 23.871094 34.539063 23.699219 34.109375 23.160156 C 33.695313 22.648438 33.675781 21.949219 34.007813 21.429688 C 33.421875 21.222656 33 20.671875 33 20.011719 C 33 19.324219 33.472656 18.742188 34.117188 18.574219 C 33.734375 18.023438 33.753906 17.273438 34.210938 16.742188 C 34.652344 16.222656 35.398438 16.074219 35.992188 16.355469 C 36.0625 15.695313 36.566406 15.132813 37.25 15.023438 C 37.9375 14.902344 38.59375 15.273438 38.875 15.875 C 39.347656 15.414063 40.09375 15.304688 40.695313 15.664063 C 41.289063 16.015625 41.5625 16.714844 41.382813 17.34375 C 42.046875 17.304688 42.691406 17.695313 42.914063 18.351563 C 42.914063 18.351563 42.914063 18.351563 42.914063 18.34375 C 43.144531 19.003906 42.894531 19.703125 42.339844 20.082031 C 42.882813 20.472656 43.113281 21.183594 42.863281 21.820313 C 42.609375 22.472656 41.96875 22.851563 41.300781 22.78125 C 41.453125 23.421875 41.167969 24.113281 40.554688 24.453125 C 39.949219 24.78125 39.203125 24.648438 38.742188 24.179688 C 38.492188 24.679688 37.96875 25 37.390625 25 C 37.292969 25 37.199219 25 37.101563 24.980469 Z M 37.683594 22.03125 L 37.683594 22.039063 C 38.007813 22.101563 38.269531 22.25 38.480469 22.460938 C 38.613281 22.199219 38.824219 21.972656 39.105469 21.820313 C 39.378906 21.671875 39.691406 21.609375 39.980469 21.640625 C 39.910156 21.363281 39.921875 21.050781 40.042969 20.75 C 40.152344 20.449219 40.355469 20.222656 40.597656 20.050781 C 40.355469 19.882813 40.164063 19.632813 40.0625 19.332031 C 39.964844 19.03125 39.953125 18.722656 40.035156 18.441406 C 39.742188 18.460938 39.429688 18.402344 39.15625 18.242188 C 38.886719 18.070313 38.683594 17.84375 38.554688 17.570313 C 38.34375 17.78125 38.070313 17.929688 37.757813 17.980469 C 37.433594 18.03125 37.132813 17.980469 36.859375 17.859375 C 36.832031 18.152344 36.71875 18.441406 36.519531 18.679688 C 36.308594 18.921875 36.042969 19.078125 35.753906 19.160156 C 35.921875 19.398438 36.023438 19.699219 36.023438 20.011719 C 36.023438 20.308594 35.941406 20.578125 35.792969 20.808594 C 36.054688 20.898438 36.285156 21.058594 36.476563 21.289063 C 36.667969 21.539063 36.78125 21.828125 36.800781 22.128906 C 36.980469 22.050781 37.183594 22 37.394531 22 C 37.492188 22.003906 37.59375 22.011719 37.683594 22.03125 Z" fill="#cfd8dc"/></svg>
